P3
10 10
255
255 100 0 255 100 0 255 100 0 255 100 0 255 100 0 255 100 0 255 100 0 255 255 255 255 255 255 255 255 255 
255 100 0 255 100 0 255 100 0 255 100 0 255 100 0 255 100 0 255 100 0 255 255 255 255 255 255 255 255 255 
255 100 0 255 100 0 255 100 0 255 100 0 255 100 0 255 100 0 255 100 0 255 255 255 255 255 255 255 255 255 
255 100 0 255 100 0 255 100 0 255 100 0 255 100 0 255 100 0 255 100 0 255 255 255 255 255 255 255 255 255 
255 100 0 255 100 0 255 100 0 255 100 0 255 100 0 255 100 0 255 100 0 255 255 255 255 255 255 255 255 255 
255 100 0 255 100 0 255 100 0 255 100 0 255 100 0 255 100 0 255 100 0 255 255 255 255 255 255 255 255 255 
255 100 0 255 100 0 255 100 0 255 100 0 255 100 0 255 100 0 255 100 0 255 255 255 255 255 255 255 255 255 
255 100 0 255 100 0 255 100 0 255 100 0 255 100 0 255 100 0 255 100 0 255 255 255 255 255 255 255 255 255 
255 100 0 255 100 0 255 100 0 255 100 0 255 100 0 255 100 0 255 100 0 255 255 255 255 255 255 255 255 255 
255 100 0 255 100 0 255 100 0 255 100 0 255 100 0 255 100 0 255 100 0 255 255 255 255 255 255 255 255 255 